public/images/sponsors/Carsales.svg

<svg fill="none" height="86" viewBox="0 0 172 86" width="172" xmlns="http://www.w3.org/2000/svg" xmlns:xlink="http://www.w3.org/1999/xlink"><clipPath id="a"><path d="m0 31h172v23.3114h-172z"/></clipPath><g clip-path="url(#a)"><path d="m91.5069 38.5164c.8044.0656 1.5715.3677 2.2046.8685.633.5007 1.1037 1.1776 1.3528 1.9453.249.7678.2653 1.5921.0467 2.3691-.2186.7769-.6623 1.4718-1.2751 1.9971s-1.3674.8575-2.1687.9547c-.8012.0972-1.6134-.045-2.334-.4085-.7206-.3636-1.3176-.9322-1.7156-1.6344s-.5793-1.5065-.521-2.3115c.0406-.5381.187-1.0629.4308-1.5443s.5802-.9099.9899-1.2611c.4097-.3511.8846-.618 1.3976-.7853s1.054-.2317 1.592-.1896z" style="fill-rule:evenodd;clip-rule:evenodd;fill:#000;stroke:#231f20;stroke-width:.09;stroke-miterlimit:2.61"/><path clip-rule="evenodd" d="m99.6029 35.53c1.6001 1.8523 2.3691 5.1285 1.8271 8.8205-.825 5.5507-4.3536 9.9609-7.8629 9.7782-.5672-.0348-1.1216-.1832-1.6303-.4365-.5086-.2532-.9612-.6062-1.3308-1.0378 2.9863-.567 6.1932-3.2636 8.1211-7.1824 1.7769-3.6227 2.0099-7.384.8758-9.942z" fill="#ffca05" fill-rule="evenodd"/><path clip-rule="evenodd" d="m82.5348 49.6303c-1.5498-1.8901-2.2429-5.1852-1.6066-8.8206.9577-5.5317 4.5993-9.8474 8.1023-9.6017.5704.0424 1.1263.1999 1.6342.463s.9571.6264 1.3207 1.068c-2.999.4851-6.3004 3.1061-8.2976 6.9745-1.8901 3.5786-2.1925 7.3336-1.1214 9.9168z" fill="#a5cd39" fill-rule="evenodd"/><path clip-rule="evenodd" d="m94.4486 48.5654c-2.9233 2.7344-6.5964 3.7802-8.9213 2.1925-2.3248-1.5876-2.6272-5.4309-1.071-9.1544 0 .1575-.0378.3087-.0504.4599-.0953 1.2217.1412 2.4464.6843 3.5449.5432 1.0984 1.3729 2.0298 2.4015 2.6957 1.0286.666 2.218 1.0418 3.4425 1.0878s2.4387-.2395 3.5144-.8264z" fill="#007ac2" fill-rule="evenodd"/><path clip-rule="evenodd" d="m96.8682 34.4338c2.3311 1.6003 2.5957 5.3805 1.0584 9.0788 0-.126 0-.2583.0441-.3906.0944-1.2246-.1448-2.4519-.6921-3.5515-.5474-1.0995-1.3823-2.0303-2.4163-2.6933-1.0339-.663-2.2281-1.0335-3.4558-1.0721-1.2276-.0386-2.4428.2561-3.5164.8527 2.936-2.7595 6.6595-3.8306 8.9907-2.224z" fill="#ec1c24" fill-rule="evenodd"/><path d="m115.801 45.39c-.382 1.1806-1.133 2.2073-2.143 2.9287-1.009.7214-2.224 1.0995-3.465 1.0784-1.582 0-3.099-.6286-4.218-1.7476-1.119-1.1189-1.748-2.6365-1.748-4.2189s.629-3.1 1.748-4.2189 2.636-1.7475 4.218-1.7475c1.252-.0063 2.473.3877 3.486 1.1244 1.012.7367 1.762 1.7776 2.141 2.9708h-3.043c-.225-.4982-.592-.9188-1.055-1.2092-.463-.2903-1.001-.4373-1.547-.4226-.449.0005-.892.0934-1.302.273-.411.1796-.78.4421-1.085.7709-.304.3288-.538.7169-.685 1.14-.148.4232-.207.8722-.173 1.3191-.021.4541.051.9076.211 1.3331.16.4254.405.814.72 1.1421.314.3281.692.589 1.11.7667.419.1778.869.2687 1.323.2674.515-.0129 1.016-.1634 1.453-.436s.792-.6572 1.03-1.1139z" fill="#969696"/><path d="m116.273 43.4558c-.001-1.5831.624-3.1023 1.74-4.2253 1.116-1.1229 2.631-1.758 4.214-1.7664.781-.0017 1.554.1512 2.274.4498.721.2986 1.376.7371 1.927 1.29.55.553.986 1.2095 1.281 1.9317.296.7222.446 1.4958.441 2.2761.021.7865-.117 1.5691-.406 2.3008-.29.7317-.724 1.3972-1.277 1.9565-.554.5593-1.215 1.0007-1.943 1.2977-.729.297-1.51.4434-2.297.4303-1.574-.0082-3.082-.6364-4.196-1.7485-1.115-1.112-1.746-2.6184-1.758-4.1927zm9.212 0c.034-.4499-.025-.902-.174-1.328s-.384-.8167-.69-1.1477c-.307-.3309-.679-.5949-1.092-.7754-.414-.1806-.86-.2738-1.311-.2738s-.898.0932-1.311.2738c-.414.1805-.785.4445-1.092.7754-.307.331-.542.7217-.69 1.1477-.149.426-.208.8781-.174 1.328-.019.441.051.8815.206 1.2947.156.4132.393.7907.698 1.1096.306.319.672.5728 1.078.7462.406.1735.843.2629 1.285.2629.441 0 .878-.0894 1.284-.2629.406-.1734.773-.4272 1.078-.7462.305-.3189.543-.6964.698-1.1096.156-.4132.226-.8537.207-1.2947z" fill="#969696"/><path d="m129.032 37.8485h2.457v.9514h.038c.22-.3655.989-1.3357 2.923-1.3357.643-.0055 1.276.1531 1.841.4607.564.3076 1.041.754 1.385 1.2971.402-.5766.944-1.0408 1.576-1.3484.632-.3077 1.332-.4486 2.034-.4094.709-.0365 1.416.1019 2.058.4029.643.301 1.202.7555 1.628 1.3234.626.9822.924 2.1385.85 3.3014v6.5461h-2.684v-6.2122c0-.63 0-2.8982-2.117-2.8982-.372.0016-.738.0986-1.062.2817s-.596.4462-.79.7642c-.326.7137-.464 1.4986-.403 2.2807v5.7838h-2.678v-6.2122c0-1.531-.586-2.8982-2.236-2.8982-2.136 0-2.136 2.3375-2.136 3.5282v5.5822h-2.684z" fill="#969696"/><path d="m153.918 49.1892h-2.079v-14.8625h2.092z" fill="#969696"/><path d="m158.234 49.1892h-2.086v-9.2237h-1.512v-1.8901h1.512v-3.7487h2.086v3.7361h1.827v1.8901h-1.827z" fill="#969696"/><path d="m169.644 49.1892v-1.5877h-.044c-.454.6094-1.049 1.0996-1.734 1.4288-.684.3292-1.439.4875-2.198.4613-.765.0156-1.526-.1241-2.236-.4104-.71-.2864-1.354-.7135-1.895-1.2557-.54-.5422-.965-1.1883-1.249-1.8992s-.422-1.472-.404-2.2373c0-2.7092 1.846-5.9034 5.784-5.9034.714-.0198 1.423.1192 2.077.4068s1.236.7168 1.703 1.2565h.032v-5.1222h2.092v14.8625zm-3.856-9.5198c-.782-.0175-1.552.1981-2.212.6193-.659.4212-1.178 1.029-1.491 1.7461s-.406 1.5111-.266 2.281.505 1.4809 1.05 2.0425c.544.5617 1.244.9486 2.009 1.1116s1.562.0947 2.288-.1962 1.35-.7912 1.791-1.4374.68-1.409.687-2.1914c.027-.519-.054-1.0381-.236-1.5247-.183-.4865-.464-.9302-.826-1.3033s-.797-.6676-1.277-.865c-.481-.1974-.998-.2936-1.517-.2825z" fill="#969696"/><g fill="#000"><path d="m9.49443 41.5531c-.25546-.6358-.69725-1.1794-1.26735-1.5595-.57009-.38-1.24182-.5788-1.92694-.57-2.75326 0-3.73612 2.2933-3.73612 4.0196 0 1.9657 1.26008 4.0385 3.69202 4.0385.6795.0059 1.3455-.1897 1.91399-.562.56848-.3722 1.01398-.9045 1.28029-1.5297h2.38158c-.3831 1.1811-1.1326 2.2095-2.1398 2.9357-1.00718.7262-2.21961 1.1125-3.46126 1.1028-3.72982 0-5.821542-3.0556-5.821542-5.9853-.032764-1.4082.443953-2.7809 1.342492-3.8657.89854-1.0847 2.15849-1.8086 3.54818-2.0386 1.38968-.23 2.81566.0495 4.01574.787 1.20009.7375 2.09359 1.8835 2.51619 3.2272z"/><path d="m22.4921 49.1387v-1.7578h-.0441c-.4051.651-.9751 1.1834-1.6523 1.543-.6771.3596-1.4374.5337-2.2035.5047-.7905.0265-1.5781-.1079-2.315-.3951s-1.4077-.7213-1.9716-1.2758c-.564-.5545-1.0093-1.2179-1.3089-1.9498-.2996-.732-.4473-1.5172-.434-2.308-.019-.797.124-1.5895.4203-2.3296s.7397-1.4124 1.3034-1.9761 1.236-1.0072 1.9761-1.3035c.7401-.2962 1.5327-.4392 2.3297-.4202.7491-.0302 1.494.1268 2.1672.4568s1.2536.8226 1.6886 1.4333h.0441v-1.5814h2.1295v11.3406zm-3.8999-9.7151c-.8002-.0188-1.5879.2011-2.2627.6315s-1.2063 1.0519-1.5268 1.7853c-.3204.7335-.4153 1.5457-.2726 2.3333s.5166 1.5148 1.0741 2.0892c.5574.5744 1.2731.9699 2.0561 1.1361.7829.1662 1.5977.0957 2.3404-.2026.7427-.2984 1.3798-.811 1.8302-1.4726.4505-.6617.6938-1.4424.699-2.2428.0241-.5291-.0603-1.0576-.2481-1.5528-.1878-.4953-.4749-.9469-.8438-1.327s-.8117-.6807-1.3011-.8832-1.0151-.3027-1.5447-.2944z"/><path d="m50.7557 49.1387v-1.7578h-.0441c-.405.651-.975 1.1834-1.6522 1.543s-1.4374.5337-2.2036.5047c-.7907.0274-1.5787-.1063-2.316-.3932s-1.4084-.721-1.9725-1.2757c-.5642-.5547-1.0094-1.2184-1.3087-1.9508-.2993-.7323-.4464-1.518-.4322-2.309-.019-.797.124-1.5895.4203-2.3296.2962-.7401.7397-1.4124 1.3034-1.9761s1.236-1.0072 1.9761-1.3035c.7401-.2962 1.5326-.4392 2.3296-.4202.7492-.0302 1.494.1268 2.1673.4568.6732.33 1.2535.8226 1.6885 1.4333h.0441v-1.5814h2.1296v11.3406zm-3.8999-9.7151c-.8002-.0188-1.5878.2011-2.2626.6315-.6749.4304-1.2064 1.0519-1.5268 1.7853-.3204.7335-.4153 1.5457-.2726 2.3333s.5166 1.5148 1.074 2.0892c.5575.5744 1.2732.9699 2.0562 1.1361.7829.1662 1.5976.0957 2.3403-.2026.7428-.2984 1.3799-.811 1.8303-1.4726.4504-.6617.6937-1.4424.699-2.2428.0241-.5291-.0603-1.0576-.2481-1.5528-.1878-.4953-.475-.9469-.8439-1.327-.3688-.3801-.8116-.6807-1.3011-.8832-.4894-.2025-1.0151-.3027-1.5447-.2944z"/><path d="m56.3883 49.1388h-2.1359v-15.1713h2.1359z"/><path d="m59.501 44.3821c.1708.8666.6349 1.6479 1.3143 2.2125.6793.5645 1.5323.8779 2.4155.8872.6608.0097 1.3116-.1613 1.8823-.4944.5706-.333 1.0396-.8156 1.3561-1.3957h2.1358c-.3996 1.1277-1.1388 2.1038-2.1158 2.7943-.977.6904-2.1439 1.0613-3.3403 1.0616-1.557-.038-3.0365-.6872-4.1187-1.8072-1.0823-1.1199-1.6804-2.6208-1.665-4.1782-.0095-.762.1312-1.5184.414-2.2261.2828-.7076.7022-1.3526 1.2343-1.8982.5321-.5455 1.1665-.981 1.8668-1.2814.7004-.3004 1.4531-.4599 2.2151-.4694s1.5184.1312 2.2261.414c.7076.2828 1.3526.7022 1.8982 1.2343.5455.5321.9809 1.1665 1.2813 1.8668.3004.7004.46 1.4531.4695 2.2151 0 .3654-.0378.9451-.0567 1.0837zm7.3399-1.6381c-.0848-.9147-.5081-1.7647-1.187-2.3835s-1.5643-.9619-2.4829-.9619-1.8041.3431-2.483.9619c-.6788.6188-1.1021 1.4688-1.187 2.3835z"/><path d="m71.8808 40.6901c0-.4662.4096-1.3861 1.7894-1.3861.4484-.007.8848.1456 1.231.4307.3463.2851.5799.684.6591 1.1255h2.0728c-.0987-.9578-.5591-1.8419-1.2874-2.4718-.7282-.6299-1.6694-.9582-2.6314-.9178-3.0368 0-3.7362 2.1421-3.7803 3.1502-.1701 3.6857 5.9476 3.0368 5.8405 5.4372 0 .4473-.4473 1.5121-2.2115 1.5121-.5763.0374-1.1447-.1497-1.5863-.5219-.4415-.3723-.722-.901-.7826-1.4753h-2.0476c.0776 1.0946.5847 2.1141 1.4109 2.8364.8261.7222 1.9042 1.0887 2.9993 1.0194 3.4589 0 4.1331-2.4508 4.1709-3.3644.1764-3.8495-5.9035-3.6164-5.8468-5.3742z"/><path d="m34.3434 40.6898c0-.4662.4033-1.386 1.7893-1.386.4485-.0071.8849.1456 1.2311.4307.3463.285.5799.684.6591 1.1254h2.0728c-.0989-.9635-.5638-1.8522-1.2989-2.483-.735-.6307-1.6841-.9552-2.6515-.9065-3.0367 0-3.7361 2.1421-3.7802 3.1501-.1701 3.6857 5.9476 3.0368 5.8405 5.4373 0 .4473-.4474 1.512-2.2115 1.512-.5661.0212-1.1194-.1721-1.5493-.5412-.4298-.3691-.7045-.8868-.7692-1.4497h-2.0413c.0776 1.0946.5847 2.1141 1.4108 2.8364.8262.7223 1.9043 1.0887 2.9994 1.0194 3.4589 0 4.1331-2.4508 4.1709-3.3644.1512-3.8558-5.9476-3.6227-5.872-5.3805z"/><path d="m31.1426 37.4704c-.6294-.0407-1.2587.0797-1.8287.3497-.5699.2701-1.0616.681-1.4286 1.1939v-1.2601h-2.0098v11.3407h2.1295v-6.124c0-.8379 0-3.4085 2.81-3.4085.2417.0027.4808.0497.7056.1386l.9451-1.9342c-.4196-.1776-.8678-.278-1.3231-.2961z"/></g></g></svg>

<svg width="172" height="86" viewBox="0 0 172 86" fill="none" xmlns="http://www.w3.org/2000/svg">
<g clip-path="url(#clip0)">
<path fill-rule="evenodd" clip-rule="evenodd" d="M91.5069 38.5164C92.3113 38.582 93.0784 38.8841 93.7115 39.3849C94.3445 39.8856 94.8152 40.5625 95.0643 41.3302C95.3133 42.098 95.3296 42.9223 95.111 43.6993C94.8924 44.4762 94.4487 45.1711 93.8359 45.6964C93.2231 46.2217 92.4685 46.5539 91.6672 46.6511C90.866 46.7483 90.0538 46.6061 89.3332 46.2426C88.6126 45.879 88.0156 45.3104 87.6176 44.6082C87.2196 43.906 87.0383 43.1017 87.0966 42.2967C87.1372 41.7586 87.2836 41.2338 87.5274 40.7524C87.7712 40.271 88.1076 39.8425 88.5173 39.4913C88.927 39.1402 89.4019 38.8733 89.9149 38.706C90.4279 38.5387 90.9689 38.4743 91.5069 38.5164Z" fill="black" stroke="#231F20" stroke-width="0.09" stroke-miterlimit="2.61"/>
<path fill-rule="evenodd" clip-rule="evenodd" d="M99.6029 35.53C101.203 37.3823 101.972 40.6585 101.43 44.3505C100.605 49.9012 97.0764 54.3114 93.5671 54.1287C92.9999 54.0939 92.4455 53.9455 91.9368 53.6922C91.4282 53.439 90.9756 53.086 90.606 52.6544C93.5923 52.0874 96.7992 49.3908 98.7271 45.472C100.504 41.8493 100.737 38.088 99.6029 35.53Z" fill="#FFCA05"/>
<path fill-rule="evenodd" clip-rule="evenodd" d="M82.5348 49.6303C80.985 47.7402 80.2919 44.4451 80.9282 40.8097C81.8859 35.278 85.5275 30.9623 89.0305 31.208C89.6009 31.2504 90.1568 31.4079 90.6647 31.671C91.1726 31.9341 91.6218 32.2974 91.9854 32.739C88.9864 33.2241 85.685 35.8451 83.6878 39.7135C81.7977 43.2921 81.4953 47.0471 82.5664 49.6303H82.5348Z" fill="#A5CD39"/>
<path fill-rule="evenodd" clip-rule="evenodd" d="M94.4486 48.5654C91.5253 51.2998 87.8522 52.3456 85.5273 50.7579C83.2025 49.1703 82.9001 45.327 84.4563 41.6035C84.4563 41.761 84.4185 41.9122 84.4059 42.0634C84.3106 43.2851 84.5471 44.5098 85.0902 45.6083C85.6334 46.7067 86.4631 47.6381 87.4917 48.304C88.5203 48.97 89.7097 49.3458 90.9342 49.3918C92.1587 49.4378 93.3729 49.1523 94.4486 48.5654Z" fill="#007AC2"/>
<path fill-rule="evenodd" clip-rule="evenodd" d="M96.8682 34.4338C99.1993 36.0341 99.4639 39.8143 97.9266 43.5126C97.9266 43.3866 97.9266 43.2543 97.9707 43.122C98.0651 41.8974 97.8259 40.6701 97.2786 39.5705C96.7312 38.471 95.8963 37.5402 94.8623 36.8772C93.8284 36.2142 92.6342 35.8437 91.4065 35.8051C90.1789 35.7665 88.9637 36.0612 87.8901 36.6578C90.8261 33.8983 94.5496 32.8272 96.8808 34.4338H96.8682Z" fill="#EC1C24"/>
<path d="M115.801 45.39C115.419 46.5706 114.668 47.5973 113.658 48.3187C112.649 49.0401 111.434 49.4182 110.193 49.3971C108.611 49.3971 107.094 48.7685 105.975 47.6495C104.856 46.5306 104.227 45.013 104.227 43.4306C104.227 41.8482 104.856 40.3306 105.975 39.2117C107.094 38.0928 108.611 37.4642 110.193 37.4642C111.445 37.4579 112.666 37.8519 113.679 38.5886C114.691 39.3253 115.441 40.3662 115.82 41.5594H112.777C112.552 41.0612 112.185 40.6406 111.722 40.3502C111.259 40.0599 110.721 39.9129 110.175 39.9276C109.726 39.9281 109.283 40.021 108.873 40.2006C108.462 40.3802 108.093 40.6427 107.788 40.9715C107.484 41.3003 107.25 41.6884 107.103 42.1115C106.955 42.5347 106.896 42.9837 106.93 43.4306C106.909 43.8847 106.981 44.3382 107.141 44.7637C107.301 45.1891 107.546 45.5777 107.861 45.9058C108.175 46.2339 108.553 46.4948 108.971 46.6725C109.39 46.8503 109.84 46.9412 110.294 46.9399C110.809 46.927 111.31 46.7765 111.747 46.5039C112.184 46.2313 112.539 45.8467 112.777 45.39H115.801Z" fill="#969696"/>
<path d="M116.273 43.4558C116.272 41.8727 116.897 40.3535 118.013 39.2305C119.129 38.1076 120.644 37.4725 122.227 37.4641C123.008 37.4624 123.781 37.6153 124.501 37.9139C125.222 38.2125 125.877 38.651 126.428 39.2039C126.978 39.7569 127.414 40.4134 127.709 41.1356C128.005 41.8578 128.155 42.6314 128.15 43.4117C128.171 44.1982 128.033 44.9808 127.744 45.7125C127.454 46.4442 127.02 47.1097 126.467 47.669C125.913 48.2283 125.252 48.6697 124.524 48.9667C123.795 49.2637 123.014 49.4101 122.227 49.397C120.653 49.3888 119.145 48.7606 118.031 47.6485C116.916 46.5365 116.285 45.0301 116.273 43.4558ZM125.485 43.4558C125.519 43.0059 125.46 42.5538 125.311 42.1278C125.162 41.7018 124.927 41.3111 124.621 40.9801C124.314 40.6492 123.942 40.3852 123.529 40.2047C123.115 40.0241 122.669 39.9309 122.218 39.9309C121.767 39.9309 121.32 40.0241 120.907 40.2047C120.493 40.3852 120.122 40.6492 119.815 40.9801C119.508 41.3111 119.273 41.7018 119.125 42.1278C118.976 42.5538 118.917 43.0059 118.951 43.4558C118.932 43.8968 119.002 44.3373 119.157 44.7505C119.313 45.1637 119.55 45.5412 119.855 45.8601C120.161 46.1791 120.527 46.4329 120.933 46.6063C121.339 46.7798 121.776 46.8692 122.218 46.8692C122.659 46.8692 123.096 46.7798 123.502 46.6063C123.908 46.4329 124.275 46.1791 124.58 45.8601C124.885 45.5412 125.123 45.1637 125.278 44.7505C125.434 44.3373 125.504 43.8968 125.485 43.4558Z" fill="#969696"/>
<path d="M129.032 37.8485H131.489V38.7999H131.527C131.747 38.4344 132.516 37.4642 134.45 37.4642C135.093 37.4587 135.726 37.6173 136.291 37.9249C136.855 38.2325 137.332 38.6789 137.676 39.222C138.078 38.6454 138.62 38.1812 139.252 37.8736C139.884 37.5659 140.584 37.425 141.286 37.4642C141.995 37.4277 142.702 37.5661 143.344 37.8671C143.987 38.1681 144.546 38.6226 144.972 39.1905C145.598 40.1727 145.896 41.329 145.822 42.4919V49.038H143.138V42.8258C143.138 42.1958 143.138 39.9276 141.021 39.9276C140.649 39.9292 140.283 40.0262 139.959 40.2093C139.635 40.3924 139.363 40.6555 139.169 40.9735C138.843 41.6872 138.705 42.4721 138.766 43.2542V49.038H136.088V42.8258C136.088 41.2948 135.502 39.9276 133.852 39.9276C131.716 39.9276 131.716 42.2651 131.716 43.4558V49.038H129.032V37.8485Z" fill="#969696"/>
<path d="M153.918 49.1892H151.839V34.3267H153.931L153.918 49.1892Z" fill="#969696"/>
<path d="M158.234 49.1892H156.148V39.9655H154.636V38.0754H156.148V34.3267H158.234V38.0628H160.061V39.9529H158.234V49.1892Z" fill="#969696"/>
<path d="M169.644 49.1892V47.6015H169.6C169.146 48.2109 168.551 48.7011 167.866 49.0303C167.182 49.3595 166.427 49.5178 165.668 49.4916C164.903 49.5072 164.142 49.3675 163.432 49.0812C162.722 48.7948 162.078 48.3677 161.537 47.8255C160.997 47.2833 160.572 46.6372 160.288 45.9263C160.004 45.2154 159.866 44.4543 159.884 43.689C159.884 40.9798 161.73 37.7856 165.668 37.7856C166.382 37.7658 167.091 37.9048 167.745 38.1924C168.399 38.48 168.981 38.9092 169.448 39.4489H169.48V34.3267H171.572V49.1892H169.644ZM165.788 39.6694C165.006 39.6519 164.236 39.8675 163.576 40.2887C162.917 40.7099 162.398 41.3177 162.085 42.0348C161.772 42.7519 161.679 43.5459 161.819 44.3158C161.959 45.0857 162.324 45.7967 162.869 46.3583C163.413 46.92 164.113 47.3069 164.878 47.4699C165.643 47.6329 166.44 47.5646 167.166 47.2737C167.892 46.9828 168.516 46.4825 168.957 45.8363C169.398 45.1901 169.637 44.4273 169.644 43.6449C169.671 43.1259 169.59 42.6068 169.408 42.1202C169.225 41.6337 168.944 41.19 168.582 40.8169C168.22 40.4438 167.785 40.1493 167.305 39.9519C166.824 39.7545 166.307 39.6583 165.788 39.6694Z" fill="#969696"/>
<path d="M9.49443 41.5531C9.23897 40.9173 8.79718 40.3737 8.22708 39.9936C7.65699 39.6136 6.98526 39.4148 6.30014 39.4236C3.54688 39.4236 2.56402 41.7169 2.56402 43.4432C2.56402 45.4089 3.8241 47.4817 6.25604 47.4817C6.93554 47.4876 7.60154 47.292 8.17003 46.9197C8.73851 46.5475 9.18401 46.0152 9.45032 45.39H11.8319C11.4488 46.5711 10.6993 47.5995 9.6921 48.3257C8.68492 49.0519 7.47249 49.4382 6.23084 49.4285C2.50102 49.4285 0.409298 46.3729 0.409298 43.4432C0.376534 42.035 0.853251 40.6623 1.75179 39.5775C2.65033 38.4928 3.91028 37.7689 5.29997 37.5389C6.68965 37.3089 8.11563 37.5884 9.31571 38.3259C10.5158 39.0634 11.4093 40.2094 11.8319 41.5531H9.49443Z" fill="black"/>
<path d="M22.4921 49.1387V47.3809H22.448C22.0429 48.0319 21.4729 48.5643 20.7957 48.9239C20.1186 49.2835 19.3583 49.4576 18.5922 49.4286C17.8017 49.4551 17.0141 49.3207 16.2772 49.0335C15.5403 48.7463 14.8695 48.3122 14.3056 47.7577C13.7416 47.2032 13.2963 46.5398 12.9967 45.8079C12.6971 45.0759 12.5494 44.2907 12.5627 43.4999C12.5437 42.7029 12.6867 41.9104 12.983 41.1703C13.2793 40.4302 13.7227 39.7579 14.2864 39.1942C14.8501 38.6305 15.5224 38.187 16.2625 37.8907C17.0026 37.5945 17.7952 37.4515 18.5922 37.4705C19.3413 37.4403 20.0862 37.5973 20.7594 37.9273C21.4326 38.2573 22.013 38.7499 22.448 39.3606H22.4921V37.7792H24.6216V49.1198L22.4921 49.1387ZM18.5922 39.4236C17.792 39.4048 17.0043 39.6247 16.3295 40.0551C15.6547 40.4855 15.1232 41.107 14.8027 41.8404C14.4823 42.5739 14.3874 43.3861 14.5301 44.1737C14.6728 44.9613 15.0467 45.6885 15.6042 46.2629C16.1616 46.8373 16.8773 47.2328 17.6603 47.399C18.4432 47.5652 19.258 47.4947 20.0007 47.1964C20.7434 46.898 21.3805 46.3854 21.8309 45.7238C22.2814 45.0621 22.5247 44.2814 22.5299 43.481C22.554 42.9519 22.4696 42.4234 22.2818 41.9282C22.094 41.4329 21.8069 40.9813 21.438 40.6012C21.0691 40.2211 20.6263 39.9205 20.1369 39.718C19.6475 39.5155 19.1218 39.4153 18.5922 39.4236Z" fill="black"/>
<path d="M50.7557 49.1387V47.3809H50.7116C50.3066 48.0319 49.7366 48.5643 49.0594 48.9239C48.3822 49.2835 47.622 49.4576 46.8558 49.4286C46.0651 49.456 45.2771 49.3223 44.5398 49.0354C43.8025 48.7485 43.1314 48.3144 42.5673 47.7597C42.0031 47.205 41.5579 46.5413 41.2586 45.8089C40.9593 45.0766 40.8122 44.2909 40.8264 43.4999C40.8074 42.7029 40.9504 41.9104 41.2467 41.1703C41.5429 40.4302 41.9864 39.7579 42.5501 39.1942C43.1138 38.6305 43.7861 38.187 44.5262 37.8907C45.2663 37.5945 46.0588 37.4515 46.8558 37.4705C47.605 37.4403 48.3498 37.5973 49.0231 37.9273C49.6963 38.2573 50.2766 38.7499 50.7116 39.3606H50.7557V37.7792H52.8853V49.1198L50.7557 49.1387ZM46.8558 39.4236C46.0556 39.4048 45.268 39.6247 44.5932 40.0551C43.9183 40.4855 43.3868 41.107 43.0664 41.8404C42.746 42.5739 42.6511 43.3861 42.7938 44.1737C42.9365 44.9613 43.3104 45.6885 43.8678 46.2629C44.4253 46.8373 45.141 47.2328 45.924 47.399C46.7069 47.5652 47.5216 47.4947 48.2643 47.1964C49.0071 46.898 49.6442 46.3854 50.0946 45.7238C50.545 45.0621 50.7883 44.2814 50.7936 43.481C50.8177 42.9519 50.7333 42.4234 50.5455 41.9282C50.3577 41.4329 50.0705 40.9813 49.7016 40.6012C49.3328 40.2211 48.89 39.9205 48.4005 39.718C47.9111 39.5155 47.3854 39.4153 46.8558 39.4236Z" fill="black"/>
<path d="M56.3883 49.1388H54.2524V33.9675H56.3883V49.1388Z" fill="black"/>
<path d="M59.501 44.3821C59.6718 45.2487 60.1359 46.03 60.8153 46.5946C61.4946 47.1591 62.3476 47.4725 63.2308 47.4818C63.8916 47.4915 64.5424 47.3205 65.1131 46.9874C65.6837 46.6544 66.1527 46.1718 66.4692 45.5917H68.605C68.2054 46.7194 67.4662 47.6955 66.4892 48.386C65.5122 49.0764 64.3453 49.4473 63.1489 49.4476C61.5919 49.4096 60.1124 48.7604 59.0302 47.6404C57.9479 46.5205 57.3498 45.0196 57.3652 43.4622C57.3557 42.7002 57.4964 41.9438 57.7792 41.2361C58.062 40.5285 58.4814 39.8835 59.0135 39.3379C59.5456 38.7924 60.18 38.3569 60.8803 38.0565C61.5807 37.7561 62.3334 37.5966 63.0954 37.5871C63.8574 37.5776 64.6138 37.7183 65.3215 38.0011C66.0291 38.2839 66.6741 38.7033 67.2197 39.2354C67.7652 39.7675 68.2006 40.4019 68.501 41.1022C68.8014 41.8026 68.961 42.5553 68.9705 43.3173C68.9705 43.6827 68.9327 44.2624 68.9138 44.401L59.501 44.3821ZM66.8409 42.744C66.7561 41.8293 66.3328 40.9793 65.6539 40.3605C64.975 39.7417 64.0896 39.3986 63.171 39.3986C62.2524 39.3986 61.3669 39.7417 60.688 40.3605C60.0092 40.9793 59.5859 41.8293 59.501 42.744H66.8409Z" fill="black"/>
<path d="M71.8808 40.6901C71.8808 40.2239 72.2904 39.304 73.6702 39.304C74.1186 39.297 74.555 39.4496 74.9012 39.7347C75.2475 40.0198 75.4811 40.4187 75.5603 40.8602H77.6331C77.5344 39.9024 77.074 39.0183 76.3457 38.3884C75.6175 37.7585 74.6763 37.4302 73.7143 37.4706C70.6775 37.4706 69.9781 39.6127 69.934 40.6208C69.7639 44.3065 75.8816 43.6576 75.7745 46.058C75.7745 46.5053 75.3272 47.5701 73.563 47.5701C72.9867 47.6075 72.4183 47.4204 71.9767 47.0482C71.5352 46.6759 71.2547 46.1472 71.1941 45.5729H69.1465C69.2241 46.6675 69.7312 47.687 70.5574 48.4093C71.3835 49.1315 72.4616 49.498 73.5567 49.4287C77.0156 49.4287 77.6898 46.9779 77.7276 46.0643C77.904 42.2148 71.8241 42.4479 71.8808 40.6901Z" fill="black"/>
<path d="M34.3434 40.6898C34.3434 40.2236 34.7467 39.3038 36.1327 39.3038C36.5812 39.2967 37.0176 39.4494 37.3638 39.7345C37.7101 40.0195 37.9437 40.4185 38.0229 40.8599H40.0957C39.9968 39.8964 39.5319 39.0077 38.7968 38.3769C38.0618 37.7462 37.1127 37.4217 36.1453 37.4704C33.1086 37.4704 32.4092 39.6125 32.3651 40.6205C32.195 44.3062 38.3127 43.6573 38.2056 46.0578C38.2056 46.5051 37.7582 47.5698 35.9941 47.5698C35.428 47.591 34.8747 47.3977 34.4448 47.0286C34.015 46.6595 33.7403 46.1418 33.6756 45.5789H31.6343C31.7119 46.6735 32.219 47.693 33.0451 48.4153C33.8713 49.1376 34.9494 49.504 36.0445 49.4347C39.5034 49.4347 40.1776 46.9839 40.2154 46.0703C40.3666 42.2145 34.2678 42.4476 34.3434 40.6898Z" fill="black"/>
<path d="M31.1426 37.4704C30.5132 37.4297 29.8839 37.5501 29.3139 37.8201C28.744 38.0902 28.2523 38.5011 27.8853 39.014V37.7539H25.8755V49.0946H28.005V42.9706C28.005 42.1327 28.005 39.5621 30.815 39.5621C31.0567 39.5648 31.2958 39.6118 31.5206 39.7007L32.4657 37.7665C32.0461 37.5889 31.5979 37.4885 31.1426 37.4704Z" fill="black"/>
</g>
<defs>
<clipPath id="clip0">
<rect width="172" height="23.3114" fill="white" transform="translate(0 31)"/>
</clipPath>
</defs>
</svg>
